X: 1851
T: Sürüverin Cezveler Kaynasın
C: Nuri Halil Poyraz
O: Turkey
F: http://compmusic.upf.edu/node/140
N: hicaz--turku--evfer--suruverin_cezveler--istanbul
N: makam= hicaz
N: form= turku
N: usul= evfer = 9/8
M: 9/8
L: 1/16
K: C _7/8B ^f ^c 
Q: 1/4=228
%%MIDI tuningsystem comma53
e2=f2 e2d2 d3c B2c2 z2 | z4B2 c2B2 A2G2 A2z2  | \
w:  ARANAĞME  |   | 
e2=f2 e2d2 d3c B2c2 z2 | 
w:  ARANAĞME  | 
z4B2 c2B2 A2G2 A2z2  | G2G2 A2A2 A4 B2c4 | \
w:   |   | 
z4B2 c2B2 A2G2 A4  | 
w:   | 
G2G2 A2A2 A4 B2c4 | z4B2 c2B2 A2G2 A4  | \
w:   |   | 
e2=f2 e2d2 d3c B2c2 z2 | 
w:  Sü rü ve rin  cez *  ve ler   | 
z4B2 c2B2 A2G2 A2z2  | e2=f2 e2d2 d3c B2c2 z2 | \
w:  kay *  *  *  na sın    |  Sü rü ve rin  cez *  ve ler   | 
z4B2 c2B2 A2G2 A2z2  | 
w:  kay *  *  *  na sın    | 
G2G2 A2A2 A4 B2c4 | z4B2 c2B2 A2G2 A4  | \
w:  Ra bi ye min  kol la rı   |  oy *  *  *  na sın    | 
G2G2 A2A2 A4 B2c4 | 
w:  Ra bi ye min  kol la rı   | 
z4B2 c2B2 A2G2 A4  | e2=f2 e2d2 d3c B2c2 z2 | \
w:  oy *  *  *  na sın    |  Ya rın  *  da  çar *  şı ya   | 
z4B2 c2B2 A2G2 A2z2  | 
w:  va *  *  *  ra yım    | 
e2=f2 e2d2 d3c B2c2 z2 | z4B2 c2B2 A2G2 A2z2  | \
w:  Ya rın  *  da  çar *  şı ya   |  va *  *  *  ra yım    | 
G2G2 A2A2 A4 B2c4 | 
w:  Ra bi ye me  bir  ho toz   | 
z4B2 c2B2 A2G2 A4  | G2G2 A2A2 A4 B2c4 | \
w:  a *  *  *  la yım    |  Ra bi ye me  bir  ho toz   | 
z4B2 c2B2 A2G2 A4  | 
w:  a *  *  *  la yım    | 
e2=f2 e2d2 d3c B2c2 z2 | z4B2 c2B2 A2G2 A2z2  | \
w:  ARANAĞME  |   | 
e2=f2 e2d2 d3c B2c2 z2 | 
w:  ARANAĞME  | 
z4B2 c2B2 A2G2 A2z2  | G2G2 A2A2 A4 B2c4 | \
w:   |   | 
z4B2 c2B2 A2G2 A4  | 
w:   | 
G2G2 A2A2 A4 B2c4 | z4B2 c2B2 A2G2 A4  | \
w:   |   | 
e2=f2 e2d2 d3c B2c2 z2 | 
w:  Sü rü ve rin  cez *  ve ler   | 
z4B2 c2B2 A2G2 A2z2  | e2=f2 e2d2 d3c B2c2 z2 | \
w:  kay *  *  *  na sın    |  Sü rü ve rin  cez *  ve ler   | 
z4B2 c2B2 A2G2 A2z2  | 
w:  kay *  *  *  na sın    | 
G2G2 A2A2 A4 B2c4 | z4B2 c2B2 A2G2 A4  | \
w:  Ra bi ye min  kol la rı   |  oy *  *  *  na sın    | 
G2G2 A2A2 A4 B2c4 | 
w:  Ra bi ye min  kol la rı   | 
z4B2 c2B2 A2G2 A4  | e2=f2 e2d2 d3c B2c2 z2 | \
w:  oy *  *  *  na sın    |  Ya rın  *  da  çar *  şı ya   | 
z4B2 c2B2 A2G2 A2z2  | 
w:  va *  *  *  ra yım    | 
e2=f2 e2d2 d3c B2c2 z2 | z4B2 c2B2 A2G2 A2z2  | \
w:  Ya rın  *  da  çar *  şı ya   |  va *  *  *  ra yım    | 
G2G2 A2A2 A4 B2c4 | 
w:  Ra bi ye me  bir  ho toz   | 
z4B2 c2B2 A2G2 A4  | G2G2 A2A2 A4 B2c4 | \
w:  a *  *  *  la yım    |  Ra bi ye me  bir  ho toz   | 
z4B2 c2B2 A2G2 A4  | 
w:  a *  *  *  la yım    | 
|


